X:1
T:Si me voyez
T:Lhuyllier
T:Source : Livre VII de chansons nouvelles à 4---Paris---N.du Chemin---1550. Editor : André Vierendeels (21/01/18). Notes : Original clefs : C1, C3, C3, F4 Original note values have been halved Editorial accidentals above the stave 
T:Si me voyez
T:©
T:©
T:©
T:©
T:©
T:©
T:©
C:Lhuyllier
Z:©
%%score [ 1 2 3 4 ]
L:1/8
Q:1/4=122
M:2/2
K:F
V:1 treble nm="Soprano" snm="S"
V:2 treble-8 nm="Tenor 1" snm="T 1"
V:3 treble-8 nm="Tenor 2" snm="T 2"
V:4 bass nm="Bass" snm="B"
V:1
 G8 | F4 G4 | A4 z2 A2 | A2 A2 d3 c | B6 AG | B2 A2 G4 | F4 z2 D2 | F4 G4 | A4 z2 F2 | B8 | %10
w: Si|me voy-|ez fa-|ce tri- st'et do-|len- * *||te, un|tainct pa-|sé, ou|mort,|
 z2 G2 d3 c | BA B4 A2- | AG G4 F2 |[M:2/4] G4 |[M:2/2] G8 | F4 G4 | A4 z2 A2 | A2 A2 d3 c | %18
w: ou mort _|_ _ _ pour|_ _ di- re|mieulx,|dic-|tes pour|seur sa|mais- tres- s'est ab-|
 B6 AG | B2 A2 G4 | F4 z2 D2 | F4 G4 | A4 z2 F2 | B8 | z2 G2 d3 c | BA B4 A2- |"^#" AG G4 F2 | %27
w: sen- * *||te, ce-|la le|faict, ain-|si,|ain- si _|_ _ _ de-|* * ve- nir|
 G2 G2 B4 | c4 A2 F2 | B2 B2 c2 c2 | d4 z2 B2 | A2 G2 F2 F2 | G4 A4 | D2 G4 F2 | G4 z2 F2 | %35
w: vieulx, car ma|vi- e'st aux|ray- ons de ses|yeulx, le|seul so- leil, le|seul so-||leil, en|
 F2 F2 G2 B2- | BA A4 G2 | A4 z2 G2 | F2 G2 A4 | z2 A4 c2- | c2 c2 B2 G2 | d4 z2 A2- | %42
w: ce mon- de re-|* * ve- *|re, com-|me des rays|de Phae-|* bus gra- ti-|eux, se-|
 A2 B2 G2 A2 | FD G4 F2 | G6 F2 | _E4 D2 A2 | B6 G2 | A4 z2 c2 | c2 c2 B2 G2 | B4 A2 d2 | %50
w: * pas- sent _|_ _ _ _||* fleurs, se|pas- sent|fleurs, du-|rant la pri- me-|ve- re, du-|
 d2 d2 c2 A2 | c3 B GA B2- | B2 A4 G2- |"^#" G2 F2 G4 | z8 | z4 A4 | B2 G2 B4 | A4 z2 c2 | %58
w: rant la pri- me-|ve- * * * *||* * re,||se|pas- * sent|fleurs, du-|
 c2 c2 B2 G2 | B4 A2 d2 | d2 d2 c2 A2 | c3 B GA B2- | B2 A4 G2- |[M:2/4]"^#" G2 F2 |[M:2/2] G8 |] %65
w: rant la pri- me-|ve- re, du-|rant la pri- me-|ve- * * * *|||re.|
V:2
 d8 | d4 B4 | f8- | f4 z2 d2 | d2 d2 g4- | g2 f2 _e4 | d4 z2 d2 | d2 d2 e4 | c2 f3 edc | B4 z2 B2 | %10
w: Si|me voy-|ez|_ fa-|ce tri- st'et|_ do- len-|te, un|tainct pas- sé|ou mort, _ _ _|_ ou|
"^b" e3 d/c/ d2 d2- | d2 g4 f2 |"^b""^b" e2 e2 d4- |[M:2/4] d4 |[M:2/2] d8 | d4 B4 | f8- | %17
w: mort, _ _ _ ou|_ mort, pour|di- re mieulx,|_|dic-|tes pour|seur|
 f4 z2 d2 | d2 d2 g4- | g2 f2 _e4 | d4 z2 d2 | d2 d2 e4 | c2 f3 e dc | B4 z2 B2 | %24
w: _ sa|mais- tres- s'est|_ ab- sen-|te, ce-|la le faict|ain- si, _ _ _|_ ain-|
"^b" e3 d/c/ d2 d2- | d2 g4 f2 |"^b""^b" e2 e2 d4 | z2 d2 d4 |"^b" e4 d2 d2 | B2 G2 c2 c2 | F4 f4 | %31
w: * * * * si|_ de- *|ve- nir vieulx,|car ma|vi- e'st aux|ray- ons de ses|yeulx, le|
 e2 e2 d4 | dcde f4 | z2 B2 c2 d2 | GABc d2 d2 | d2 d2 e2 f2 | f4 d2 g2- | g2 f2 e2 d2- | %38
w: seul so- leil,|_ _ _ _ _|le seul so-|leil, _ _ _ _ qu'en|ce mon- de re-|ver- re, com-|* me des rays|
 d2 d2 f4- | f2 f2 c3 d | e4 d2 g2- | g2 f2 g2 e2 | d2 d2 e2 c2 | d8 | z2 d2 d2 d2 | B2 c2 A4 | %46
w: _ de Phae-|* bus gra- ti-|eux, de Phau-|* bus gra- ti-|eux, se pas- sent|fleurs,|du- rant la|pri- me ve-|
 GABc d3 e | f6 ed | e4 d2 g2 | g2 g2 f2 d2 | f3 g a4 | g2 g2 g2 g2 |"^b" f6 e2 | d4 d2 d2 | %54
w: ||* re, du-|rant la pri- me-|ve- * *|re, du- rant la|pri- me-|ve re, se|
"^b" e2 c2 d3 c | B2 c2 A2 d2 |"^b""^b" d2 e2 d3 e |"^-natural" f6 ed | e4 d2 g2 | g2 g2 f2 d2 | %60
w: pas- sent flaurs _|_ _ _ du-|rant la pri- me-|ve- * *|* re, du-|rant la pri- me-|
 f3 g a4 | g2 g2 g2 g2 |"^b" f6 e2 |[M:2/4] d4 |[M:2/2] d8 |] %65
w: ve- * *|re, du- rant la|pri- me-|ve-|re.|
V:3
 G4 B4- | B2 A2 G4 | F2 A2 A2 A2 | d3 c B2 A2 | z2 G2 B2 c2 | d3 c BA B2- | B2 AG F2 B2 | %7
w: Si me|_ _ voy-|ez fa- ce tri-|st'et do- len- te,|fa- ce tri-|st'et _ do- * len|_ _ _ te, un|
 A2 F2 c4 | z2 A2 d4 | z2 D2 G3 F | GA B4 A2 | B2 G2 d2 d2 | c3 B A4 |[M:2/4] G4 |[M:2/2] G4 B4- | %15
w: tainct pas- sé|ou mort,|ou mort _|_ _ _ _|* ou mort, pour|di- * re|mieulx,|dic- tes|
 B2 A2 G4 | F2 A2 A2 A2 | d3 c B2 A2 | z2 G2 B2 c2 | d3 c BA B2- | B2 AG F2 B2 | A2 F2 c4 | %22
w: _ pour seur|sa mais- tres- s'est|ab- * sen- te,|sa mai- stres-|s'est ab- sen- * *|* * * te, ce-|la le faict|
 z2 A2 d4 | z2 D2 G3 F | GA B4 A2 | B2 G2 d2 d2 | c3 B A4 | G4 z2 G2 | G2 G2 F2 F2 | G2 B2 B2 A2 | %30
w: ain- si,|qin- si _|_ _ _ _|* ain- si de-|ve- * nir|vieulx, car|ma vi- e'st aux|ray- ons de ses|
 B4 d4 | c3 B A2 A2 | G2 B2 c4 | B2 G3 A B2- | B2 AG A2 A2 | A2 A2 c2 d2- | dcBA B4 | A2 d2 c2 B2 | %38
w: yeulx, le|seul- * * so-|leil, le seul|so- leil, _ _|_ _ _ _ qu'en|ce mon- de re-|* * * * ve-|re, com- me des|
 A2 G2 c2 c2 | F3 G A4 | z2 G4 B2- | B2 A2 G2 A2 | F3 G E4 | D4 z2 A2 | B2 G2 B2 A2- | AG G4 F2 | %46
w: rays de Phae- bus|gra- ti- eux,,|se pas-||* * sent|fleurs, du-|rant la pri- me-|* * ve- *|
 G4 z2 d2 | d2 d2 c2 A2 | c2 G3 A B2- | Bc d3 c B2 | A4 z2 c2 | c2 c2 B2 G2 | d4 c2 B2 | A4 G4 | %54
w: re, du-|rant la pri- me-|ve- * * *||re, du-|rant la pri- me-|ve- * *|* re,|
 z2 A4 B2 | G2 A4 GF | G4 z2 d2 | d2 d2 c2 A2 | c2 G3 A B2- | Bc d3 c B2 | A4 z2 c2 | c2 c2 B2 G2 | %62
w: se pas-|sent fleurs, _ _|_ du-|rant la pri- me-|ve- * * *||re, du-|rant la pri- me-|
 d4 c2 B2 |[M:2/4] A4 |[M:2/2] G8 |] %65
w: ve- * *||re.|
V:4
 G,,8 | D,4 E,4 | D,8 | z2 D,2 D,2 D,2 | G,3 F, _E,4 | D,2 D,2 _E,4 | B,,8 | z2 D,2 C,2 C,2 | %8
w: Si|me voy-|ez|fa- ce tri-|st'et do- len-|te, do- len-|te,|un tainct pas-|
 F,E,D,C, B,,4 |"^b" z2 B,,2 E,4- | E,4 z2 D,2 | G,6 D,2 |"^b" E,2 C,2 D,4 |[M:2/4] G,,4 | %14
w: sé, _ _ _ _|ou mort,|_ ou|mort, pour|di- * re|mieulx,|
[M:2/2] G,,8 |"^b" D,4 E,4 | D,8 | z2 D,2 D,2 D,2 | G,3 F, _E,4 | D,2 D,2 _E,4 | B,,8 | %21
w: dic-|tes pour|seur|sa mais- tres-|s'est ab- sen-|te, ab- sen-|te,|
 z2 D,2 C,2 C,2 | F,E,D,C, B,,4 |"^b" z2 B,,2 E,4- |"^b" E,4 z2 D,2 | G,6 D,2 |"^b" E,2 C,2 D,4 | %27
w: ce- la le|faict, _ _ _ _|ain- si,|_ ain-|si de-|ve- * nir|
 G,,2 G,2 G,4 | _E,2 D,C, D,2 D,2 |"^b" E,3 D, C,2 C,2 | B,,4 z2 B,,2 | C,4 D,4 | G,,2 G,4 F,2 | %33
w: vieulx, car ma|vi- * * e'st aux|ray- ons de ses|yeulx, le|seul so-|leil, le seul|
 G,3 F, _E,2 D,2 | _E,4 D,2 D,2 | D,2 D,2 C,2 B,,2 | F,4 G,4 | D,4 z2 G,2 | D,2 G,2 F,4 | %39
w: so- leil, _ _|_ _ qu'en|ce mon- de re-|ve- *|re, com-|me des rays|
 D,4 F,2 F,2 | E,2 C,2 G,4 | z2 D,2 E,2 C,2 | D,4 z2 A,,2 | B,,2 G,,2 D,4 | G,,4 z2 D,2 | %45
w: de Phae- bus|gra- ti- eux,|se pas- sent|fleurs, se|pas- * sent|fleurs, se|
 E,2 C,2 D,4 | z2 G,2 G,2 G,2 | F,2 D,2 F,3 E, | C,D,E,F, G,2 G,,2- | G,,A,,B,,C, D,4 | %50
w: pas- sent fleurs,|du- rant la|pri- me- ve- *||* * * * re,|
 z2 F,2 F,2 F,2 | E,2 C,2 _E,3 D, |"^-natural" B,,C,D,E, F,2 G,2 | D,4 G,,4 | z4 D,4 | %55
w: du- rant la|pri- me- ve- *||* re,|se|
 E,2 C,2 D,4 | z2 G,2 G,2 G,2 | F,2 D,2 F,3 E, | C,D,E,F, G,2 G,,2- | G,,A,,B,,C, D,4 | %60
w: pas- sent fleurs|du- rant la|pri- me- ve- *||* * * * re,|
 z2 F,2 F,2 F,2 |"^-natural" E,2 C,2 _E,3 D, |"^-natural" B,,C,D,E, F,2 G,2 |[M:2/4] D,4 | %64
w: du- rant la|pri- me- ve- *|||
[M:2/2] G,,8 |] %65
w: re.|

